img/icons/svg/color/abt.svg

<svg xmlns="http://www.w3.org/2000/svg" width="32" height="32" viewBox="0 0 32 32">
  <g fill="none" fill-rule="evenodd">
    <circle cx="16" cy="16" r="16" fill="#3EFFFF"/>
    <path fill="#FFF" fill-rule="nonzero" d="M6.5,10.4865526 L16,5 L25.5,10.4865526 L25.5,21.5134474 L16,27 L6.5,21.5134474 L6.5,10.4865526 Z M7.41242938,20.4565736 L11.2218968,18.2523651 L13.1553745,14.866585 L7.41242938,11.5436406 L7.41242938,20.4565736 Z M7.86864475,21.2484889 L15.5706215,25.6966257 L15.5706215,21.4406714 L11.5328544,19.1283284 L7.86864475,21.2484889 Z M24.5875706,11.5746961 L18.8960993,14.8678571 L20.8276899,18.2500011 L24.5875706,20.4255181 L24.5875706,11.5746961 Z M24.1584018,10.7671314 L16.4830508,6.33437176 L16.4830508,10.6426979 L18.4428463,14.0742277 L24.1584018,10.7671314 Z M18.110619,15.3223464 L16.9392655,16.0001071 L19.2637444,17.3450815 L18.110619,15.3223464 Z M17.6579819,14.5283607 L16.4830508,12.4673757 L16.4830508,15.2081914 L17.6579819,14.5283607 Z M12.794088,17.3426744 L15.1144068,16.0001071 L13.9452616,15.3236242 L12.794088,17.3426744 Z M12.4476445,18.5990187 L15.5706215,20.3874809 L15.5706215,16.7920227 L12.4476445,18.5990187 Z M7.86845949,10.7516181 L13.6085941,14.0729363 L15.5706215,10.6371619 L15.5706215,6.30337429 L7.86845949,10.7516181 Z M24.1582165,21.2329756 L20.5220989,19.1290696 L16.4830508,21.4700146 L16.4830508,25.6656282 L24.1582165,21.2329756 Z M19.6100494,18.6013457 L16.4830508,16.7920227 L16.4830508,20.4136865 L19.6100494,18.6013457 Z M14.3979428,14.529664 L15.5706215,15.2081914 L15.5706215,12.472896 L14.3979428,14.529664 Z"/>
  </g>
</svg>

<svg xmlns="http://www.w3.org/2000/svg" width="32" height="32" viewBox="0 0 32 32"><g fill="none" fill-rule="evenodd"><circle cx="16" cy="16" r="16" fill="#3EFFFF"/><path fill="#FFF" fill-rule="nonzero" d="M6.5 10.487L16 5l9.5 5.487v11.026L16 27l-9.5-5.487V10.487zm.912 9.97l3.81-2.205 1.933-3.385-5.743-3.323v8.913zm.457.791l7.702 4.449V21.44l-4.038-2.313-3.664 2.12zm16.719-9.673l-5.692 3.293 1.932 3.382 3.76 2.176v-8.851zm-.43-.808l-7.675-4.433v4.309l1.96 3.431 5.715-3.307zm-6.047 4.555L16.939 16l2.325 1.345-1.153-2.023zm-.453-.794l-1.175-2.06v2.74l1.175-.68zm-4.864 2.815L15.114 16l-1.169-.676-1.15 2.019zm-.346 1.256l3.123 1.788v-3.595l-3.123 1.807zm-4.58-7.847l5.74 3.32 1.963-3.435V6.303l-7.703 4.449zm16.29 10.481l-3.636-2.104-4.039 2.341v4.196l7.675-4.433zm-4.548-2.632l-3.127-1.809v3.622L19.61 18.6zm-5.212-4.071l1.173.678v-2.735l-1.173 2.057z"/></g></svg>
